X:7
T:An Dro
R:an dro
D:Skolvan
O:Bretagne
Z:id:hn-an dro-7
M:2/4
L:1/16
K:G
K:G
B2Bc B3A | G3B ded2 | B2Bc B3A | G2B2 A3A :|
B2c2 d3e | d2dd ABA2 |: B2Bd B4 | AGFG ABAG | B2AB c3c | B2AB G4 :|

